!!!OTL: やさしくなりたい
**kern	**kern	**text	**kern	**text	**kern	**text	**kern	**text
*part5	*part4	*part4	*part3	*part3	*part2	*part2	*part1	*part1
*staff5	*staff4	*staff4	*staff3	*staff3	*staff2	*staff2	*staff1	*staff1
*I"ピアノ	*I"ピアノ	*	*I"ピアノ	*	*I"ピアノ	*	*I"ピアノ	*
*I'Pno.	*I'Pno.	*	*I'Pno.	*	*I'Pno.	*	*I'Pno.	*
*clefF4	*clefG2	*	*clefG2	*	*clefG2	*	*clefGv2	*
*k[b-e-a-d-g-]	*k[b-e-a-d-g-]	*	*k[b-e-a-d-g-]	*	*k[b-e-a-d-g-]	*	*k[b-e-a-d-g-]	*
*M4/4	*M4/4	*	*M4/4	*	*M4/4	*	*M4/4	*
=1	=1	=1	=1	=1	=1	=1	=1	=1
1r	1r	.	1r	.	8dd-L	tu	1r	.
.	.	.	.	.	8cc	lu	.	.
.	.	.	.	.	8b-	lu	.	.
.	.	.	.	.	8dd-J	tu	.	.
.	.	.	.	.	8ccL	lu	.	.
.	.	.	.	.	8b-	lu	.	.
.	.	.	.	.	8dd-	tu	.	.
.	.	.	.	.	8ccJ	lu	.	.
=2	=2	=2	=2	=2	=2	=2	=2	=2
1r	2r	.	2r	.	8b-L	lu	1r	.
.	.	.	.	.	8dd-	tu	.	.
.	.	.	.	.	8cc	lu	.	.
.	.	.	.	.	8b-J	lu	.	.
.	4r	.	4r	.	8dd-L	tu	.	.
.	.	.	.	.	8cc	lu	.	.
.	8r	.	8r	.	8b-	lu	.	.
.	16d-LL	da	16g-LL	da	8dd-J	tu	.	.
.	16d-JJ	la	16g-JJ	la	.	.	.	.
=3	=3	=3	=3	=3	=3	=3	=3	=3
8GG-L	[1d-	dan	[1g-	dan	8ccL	lu	1r	.
8GG-	.	.	.	.	8b-	lu	.	.
8GG-	.	.	.	.	8dd-	tu	.	.
8GG-J	.	.	.	.	8ccJ	lu	.	.
8GG-L	.	.	.	.	8b-L	lu	.	.
8GG-	.	.	.	.	8dd-	tu	.	.
8GG-	.	.	.	.	8cc	lu	.	.
8GG-J	.	.	.	.	8b-J	lu	.	.
=4	=4	=4	=4	=4	=4	=4	=4	=4
8GG-L	2d-]	.	2g-]	.	8dd-L	tu	1r	.
8GG-	.	.	.	.	8cc	lu	.	.
8GG-	.	.	.	.	8b-	lu	.	.
8GG-J	.	.	.	.	8dd-J	tu	.	.
8GG-L	8d-L	da	8g-L	da	8ccL	lu	.	.
8GG-	8d-J	da	8g-J	da	8b-	lu	.	.
8GG-	8d-L	da	8g-L	da	8dd-	tu	.	.
8GG-J	16d-L	da	16g-L	da	8ccJ	lu	.	.
.	16d-JJ	la	16g-JJ	la	.	.	.	.
=5	=5	=5	=5	=5	=5	=5	=5	=5
8BB-L	2.d-	dan	2.f	dan	8b-L	lu	1r	.
8BB-	.	.	.	.	8dd-	tu	.	.
8BB-	.	.	.	.	8cc	lu	.	.
8BB-J	.	.	.	.	8b-J	lu	.	.
8BB-L	.	.	.	.	8dd-L	tu	.	.
8BB-	.	.	.	.	8cc	lu	.	.
8BB-	8d-L	da	8fL	da	8b-	lu	.	.
8BB-J	[8d-J	dan	[8fJ	dan	8dd-J	tu	.	.
=6	=6	=6	=6	=6	=6	=6	=6	=6
8BB-L	8d-]	.	8f]	.	8ccL	lu	1r	.
8BB-	4d-	dan	4f	dan	8b-	lu	.	.
8BB-	.	.	.	.	8dd-	tu	.	.
8BB-J	4d-	dan	4f	dan	8ccJ	lu	.	.
8BB-L	.	.	.	.	8b-L	lu	.	.
8BB-	8d-	da	8f	da	8dd-	tu	.	.
8BB-	8d-L	da	8fL	da	8cc	lu	.	.
8BB-J	16d-L	da	16fL	da	8b-J	lu	.	.
.	16d-JJ	la	16fJJ	la	.	.	.	.
=7	=7	=7	=7	=7	=7	=7	=7	=7
8GG-L	[1d-	dan	[1g-	dan	8dd-L	tu	1r	.
8GG-	.	.	.	.	8cc	lu	.	.
8GG-	.	.	.	.	8b-	lu	.	.
8GG-J	.	.	.	.	8dd-J	tu	.	.
8GG-L	.	.	.	.	8ccL	lu	.	.
8GG-	.	.	.	.	8b-	lu	.	.
8GG-	.	.	.	.	8dd-	tu	.	.
8GG-J	.	.	.	.	8ccJ	lu	.	.
=8	=8	=8	=8	=8	=8	=8	=8	=8
8GG-L	2d-]	.	2g-]	.	8b-L	lu	1r	.
8GG-	.	.	.	.	8dd-	tu	.	.
8GG-	.	.	.	.	8cc	lu	.	.
8GG-J	.	.	.	.	8b-J	lu	.	.
8GG-L	8d-L	da	8g-L	da	8dd-L	tu	.	.
8GG-	8d-J	da	8g-J	da	8cc	lu	.	.
8GG-	8d-L	da	8g-L	da	8b-	lu	.	.
8GG-J	16d-L	da	16g-L	da	8dd-J	tu	.	.
.	16d-JJ	la	16g-JJ	la	.	.	.	.
=9	=9	=9	=9	=9	=9	=9	=9	=9
8AA-L	4c	dan	4e-	dan	8ccL	lu	1r	.
8AA-	.	.	.	.	8b-	lu	.	.
8AA-	8c	da	8e-	da	8dd-	tu	.	.
8AA-J	4c	dan	4e-	dan	8ccJ	lu	.	.
8AA-L	.	.	.	.	8b-L	lu	.	.
8AA-	8cL	da	8e-L	da	8dd-	tu	.	.
8AA-	8c	da	8e-	da	8cc	lu	.	.
8E-J	8cJ	da	8e-J	da	8b-J	lu	.	.
=10	=10	=10	=10	=10	=10	=10	=10	=10
8A-L	4c	dan	4e-	dan	8dd-L	tu	2r	.
8A-	.	.	.	.	8cc	lu	.	.
8A-	8c	da	8e-	da	8b-	lu	.	.
8A-J	4c	dan	4e-	dan	8dd-J	tu	.	.
8A-L	.	.	.	.	8ccL	lu	8D-L	ち
8A-J	8cL	da	8e-L	da	8b-	lu	8C	きゅ
4A-	8c	da	8e-	da	8dd-	tu	8BB-	う
.	8cJ	da	8e-J	da	8ccJ	lu	8AA-J	ぎ
=11	=11	=11	=11	=11	=11	=11	=11	=11
8GG-L	4d-	lu	4g-	lu	4b-	lu	4GG-	を
8GG-	.	.	.	.	.	.	.	.
8GG-	8d-	lu	8g-	lu	8b-	lu	8BB-	ま
8GG-J	4d-	lu	4g-	lu	4b-	lu	4AA-	わ
8AA-L	.	.	.	.	.	.	.	.
8AA-	4c	lu	4e-	lu	4a-	lu	8GG-L	ー
8AA-	.	.	.	.	.	.	8EE-	し
8AA-J	8c	lu	8e-	lu	8a-	lu	8EE-J	て
=12	=12	=12	=12	=12	=12	=12	=12	=12
8BB-L	4d-	lu	4f	lu	4b-	lu	4FF	ー
8BB-	.	.	.	.	.	.	.	.
8BB-	8d-	lu	8f	lu	8b-	lu	4r	.
8BB-J	4d-	lu	4f	lu	4b-	lu	.	.
8BB-L	.	.	.	.	.	.	8BB-L	せ
8BB-	4d-	lu	4f	lu	4b-	lu	8AA-	か
8BB-	.	.	.	.	.	.	8GG-	い
8BB-J	8d-	lu	8f	lu	8b-	lu	8FFJ	ひゃ
=13	=13	=13	=13	=13	=13	=13	=13	=13
8GG-L	4d-	lu	4g-	lu	4b-	lu	4GG-	く
8GG-	.	.	.	.	.	.	.	.
8GG-	8d-	lu	8g-	lu	8b-	lu	8BB-	しゅ
8GG-J	4d-	lu	4g-	lu	4b-	lu	4AA-	う
8AA-L	.	.	.	.	.	.	.	.
8AA-	4c	lu	4e-	lu	4a-	lu	4GG-	りょ
8AA-	.	.	.	.	.	.	.	.
8AA-J	8c	lu	8e-	lu	8a-	lu	8GG-	こ
=14	=14	=14	=14	=14	=14	=14	=14	=14
8BB-L	4d-	lu	4f	lu	4b-	lu	4FF	う
8BB-	.	.	.	.	.	.	.	.
8BB-	8d-	lu	8f	lu	8b-	lu	4r	.
8BB-J	4d-	lu	4f	lu	4b-	lu	.	.
8BB-L	.	.	.	.	.	.	8D-L	き
8BB-	4d-	lu	4f	lu	4b-	lu	8C	み
8BB-	.	.	.	.	.	.	8BB-	が
8BB-J	8d-	lu	8f	lu	8b-	lu	8AA-J	は
=15	=15	=15	=15	=15	=15	=15	=15	=15
8GG-L	4d-	lu	4g-	lu	4b-	lu	4GG-	しゃ
8GG-	.	.	.	.	.	.	.	.
8GG-	8d-	lu	8g-	lu	8b-	lu	8BB-	い
8GG-J	4d-	lu	4g-	lu	4b-	lu	4.AA-	で
8AA-L	.	.	.	.	.	.	.	.
8AA-	4c	lu	4e-	lu	4a-	lu	.	.
8AA-	.	.	.	.	.	.	8CL	い
8AA-J	8c	lu	8e-	lu	8a-	lu	8CJ	る
=16	=16	=16	=16	=16	=16	=16	=16	=16
8BB-L	4d-	lu	4f	lu	4b-	lu	4D-	ー
8BB-	.	.	.	.	.	.	.	.
8BB-	8d-	lu	8f	lu	8b-	lu	4r	.
8BB-J	4d-	lu	4f	lu	4b-	lu	.	.
8BB-L	.	.	.	.	.	.	8FL	ま
8BB-	4d-	lu	4f	lu	4b-	lu	8E-	ぶ
8BB-	.	.	.	.	.	.	8F	し
8BB-J	8d-	lu	8f	lu	8b-	lu	8FJ	い
=17	=17	=17	=17	=17	=17	=17	=17	=17
8GG-L	4d-	lu	4g-	lu	4b-	lu	8G-L	ー
8GG-	.	.	.	.	.	.	8D-	ー
8GG-	8d-	lu	8g-	lu	8b-	lu	8D-J	ひ
8GG-J	4d-	lu	4g-	lu	4b-	lu	4D-	と
8AA-L	.	.	.	.	.	.	.	.
8AA-	4c	lu	4e-	lu	4a-	lu	4C	み
8AA-	.	.	.	.	.	.	.	.
8AA-J	8c	lu	8e-	lu	8a-	lu	8C	で
=18	=18	=18	=18	=18	=18	=18	=18	=18
8BB-L	4d-	lu	4f	lu	4b-	lu	4BB-	ー
8BB-	.	.	.	.	.	.	.	.
8BB-	8d-	lu	8f	lu	8b-	lu	4r	.
8BB-J	4d-	lu	4f	lu	4b-	lu	.	.
8BB-L	.	.	.	.	.	.	8D-L	ひ
8BB-	4d-	lu	4f	lu	4b-	lu	8C	か
8BB-	.	.	.	.	.	.	8BB-	り
8BB-J	8d-	lu	8f	lu	8b-	lu	8AA-J	の
=19	=19	=19	=19	=19	=19	=19	=19	=19
8GG-L	4d-	lu	4g-	lu	4b-	lu	4GG-	う
8GG-	.	.	.	.	.	.	.	.
8GG-	8d-	lu	8g-	lu	8b-	lu	8BB-	し
8GG-J	4d-	lu	4g-	lu	4b-	lu	4AA-	ろ
8AA-L	.	.	.	.	.	.	.	.
8AA-	4c	lu	4e-	lu	4a-	lu	8EE-L	ー
8AA-	.	.	.	.	.	.	8EE-	が
8AA-J	8c	lu	8e-	lu	8a-	lu	8EE-J	わ
=20	=20	=20	=20	=20	=20	=20	=20	=20
8BB-L	4d-	lu	4f	lu	4b-	lu	4FF	ー
8BB-	.	.	.	.	.	.	.	.
8BB-	8d-	lu	8f	lu	8b-	lu	8r	.
8BB-J	4d-	lu	4f	lu	4b-	lu	8FF	し
8BB-L	.	.	.	.	.	.	8BB-L	ー
8BB-	4d-	lu	4f	lu	4b-	lu	8AA-	の
8BB-	.	.	.	.	.	.	8GG-	び
8BB-J	8d-	lu	8f	lu	8b-	lu	8FFJ	よ
=21	=21	=21	=21	=21	=21	=21	=21	=21
8GG-L	4d-	lu	4g-	lu	4b-	lu	4GG-	る
8GG-	.	.	.	.	.	.	.	.
8GG-	8d-	lu	8g-	lu	8b-	lu	8BB-	か
8GG-J	4d-	lu	4g-	lu	4b-	lu	4AA-	げ
8AA-L	.	.	.	.	.	.	.	.
8AA-	4c	lu	4e-	lu	4a-	lu	4GG-	ぼう
8AA-	.	.	.	.	.	.	.	.
8AA-J	8c	lu	8e-	lu	8a-	lu	8GG-	し
=22	=22	=22	=22	=22	=22	=22	=22	=22
8BB-L	4d-	lu	4f	lu	4b-	lu	4FF	ー
8BB-	.	.	.	.	.	.	.	.
8BB-	8d-	lu	8f	lu	8b-	lu	4r	.
8BB-J	4d-	lu	4f	lu	4b-	lu	.	.
8BB-L	.	.	.	.	.	.	8D-L	な
8BB-	4d-	lu	4f	lu	4b-	lu	8C	つ
8BB-	.	.	.	.	.	.	8BB-	か
8AA-J	8d-	lu	8f	lu	8b-	lu	8AA-J	し
=23	=23	=23	=23	=23	=23	=23	=23	=23
8GG-L	4d-	lu	4g-	lu	4b-	lu	4GG-	の
8GG-	.	.	.	.	.	.	.	.
8GG-	8d-	lu	8g-	lu	8b-	lu	8BB-	き
8GG-J	4d-	lu	4g-	lu	4b-	lu	4AA-	の
8AA-L	.	.	.	.	.	.	.	.
8AA-	4c	lu	4e-	lu	4a-	lu	4C	う
8AA-	.	.	.	.	.	.	.	.
8AA-J	8c	lu	8e-	lu	8a-	lu	8C	は
=24	=24	=24	=24	=24	=24	=24	=24	=24
8BB-L	4d-	lu	4f	lu	4b-	lu	4D-	ー
8BB-	.	.	.	.	.	.	.	.
8BB-	8d-	lu	8f	lu	8b-	lu	4r	.
8BB-J	4d-	lu	4f	lu	4b-	lu	.	.
8BB-L	.	.	.	.	.	.	8FL	い
8BB-	4d-	lu	4f	lu	4b-	lu	8E-	ま
8BB-	.	.	.	.	.	.	8F	あ
8BB-J	8d-	lu	8f	lu	8b-	lu	8FJ	め
=25	=25	=25	=25	=25	=25	=25	=25	=25
8GG-L	4d-	lu	4g-	lu	4b-	lu	8G-L	ー
8GG-	.	.	.	.	.	.	8D-	ー
8GG-	8d-	lu	8g-	lu	8b-	lu	8D-J	の
8GG-J	4d-	lu	4g-	lu	4b-	lu	4D-	な
8AA-L	.	.	.	.	.	.	.	.
8AA-	4c	lu	4e-	lu	4a-	lu	4C	か
8AA-	.	.	.	.	.	.	.	.
8AA-J	8c	lu	8e-	lu	8a-	lu	8C	に
=26	=26	=26	=26	=26	=26	=26	=26	=26
8BB-L	4d-	lu	4f	lu	4b-	lu	4BB-	ー
8BB-	.	.	.	.	.	.	.	.
8BB-	8d-	lu	8f	lu	8b-	lu	4r	.
8BB-J	4d-	lu	4f	lu	4b-	lu	.	.
8BB-	.	.	.	.	.	.	4r	.
4F	4d-	lu	4f	lu	4b-	lu	.	.
.	.	.	.	.	.	.	8r	.
8F	8d-	lu	8f	lu	8b-	lu	8AA-	や
=27	=27	=27	=27	=27	=27	=27	=27	=27
8AA-L	1a-	ha	1cc	ha	1ee-	ha	8E-L	さ
8AA-	.	.	.	.	.	.	8D-	し
8AA-	.	.	.	.	.	.	8E-	く
8AA-J	.	.	.	.	.	.	8D-J	な
8AA-L	.	.	.	.	.	.	4E-	り
8AA-	.	.	.	.	.	.	.	.
8AA-	.	.	.	.	.	.	8FL	た
8AA-J	.	.	.	.	.	.	8FJ	い
=28	=28	=28	=28	=28	=28	=28	=28	=28
8AA-L	4r	.	4r	.	1ee-	han	4E-	ー
8AA-	.	.	.	.	.	.	.	.
8AA-	4r	.	2.cc	han	.	.	4r	.
8AA-J	.	.	.	.	.	.	.	.
8AA-L	2a-	han	.	.	.	.	4r	.
8GG-	.	.	.	.	.	.	.	.
8AA-	.	.	.	.	.	.	8r	.
8AAnJ	.	.	.	.	.	.	8C	や
=29	=29	=29	=29	=29	=29	=29	=29	=29
8BB-L	1b-	ha	1dd-	ha	1ff	ha	8D-L	さ
8BB-	.	.	.	.	.	.	8C	し
8BB-	.	.	.	.	.	.	8D-	く
8BB-J	.	.	.	.	.	.	8CJ	な
8BB-L	.	.	.	.	.	.	4D-	り
8BB-	.	.	.	.	.	.	.	.
8BB-	.	.	.	.	.	.	8E-L	た
8BB-J	.	.	.	.	.	.	8E-J	い
=30	=30	=30	=30	=30	=30	=30	=30	=30
8BB-L	2r	.	4r	.	1ff	han	4D-	ー
8BB-	.	.	.	.	.	.	.	.
8BB-	.	.	2.dd-	han	.	.	4r	.
8BB-J	.	.	.	.	.	.	.	.
8BB-L	2b-	han	.	.	.	.	2r	.
8BB-	.	.	.	.	.	.	.	.
8AA-	.	.	.	.	.	.	.	.
8AA-J	.	.	.	.	.	.	.	.
=31	=31	=31	=31	=31	=31	=31	=31	=31
8GG-L	1b-	ha	1dd-	ha	1aa-	ha	8E-L	じ
8GG-	.	.	.	.	.	.	8D-	ぶ
8GG-	.	.	.	.	.	.	8E-	ん
8GG-J	.	.	.	.	.	.	8D-J	ば
8GG-L	.	.	.	.	.	.	8E-L	か
8GG-	.	.	.	.	.	.	8D-	ー
8GG-	.	.	.	.	.	.	8D-	り
8D-J	.	.	.	.	.	.	8D-J	じゃ
=32	=32	=32	=32	=32	=32	=32	=32	=32
8G-L	1b-	ah	1dd-	ah	1gg-	ah	4E-	ー
8G-	.	.	.	.	.	.	.	.
8G-	.	.	.	.	.	.	4r	.
8G-J	.	.	.	.	.	.	.	.
8G-L	.	.	.	.	.	.	2r	.
8G-	.	.	.	.	.	.	.	.
8G-	.	.	.	.	.	.	.	.
8G-J	.	.	.	.	.	.	.	.
=33	=33	=33	=33	=33	=33	=33	=33	=33
8AA-L	4a-	ha	2r	.	2r	.	8E-L	む
8AA-	.	.	.	.	.	.	8D-	な
8AA-	2a-	ah	.	.	.	.	8E-	し
8AA-J	.	.	.	.	.	.	8D-J	さ
8AA-L	.	.	8ccL	da	8ee-L	da	8E-	ば
8AA-	.	.	8cc	la	8ee-	la	4F	か
8AA-	8r	.	8cc	ta	8ee-	ta	.	.
8AA-J	[8a-	ha	8ccJ	ta	8ee-J	ta	8F	り
=34	=34	=34	=34	=34	=34	=34	=34	=34
8AAnL	8a-]	.	8ccL	la	8ee-L	la	4.G-	ー
8AA	4.b-	ah	8cc	ta	8ee-	ta	.	.
8AA	.	.	8ccJ	ta	8ee-J	ta	.	.
8CJ	.	.	4cc	ta	4ee-	ta	8F	ー
8CL	4.b-	ah	.	.	.	.	4F	じゃ
8C	.	.	8ccL	la	8ee-L	la	.	.
8E-	.	.	8cc	ta	8ee-	ta	4r	.
8E-J	8r	.	8ccJ	ta	8ee-J	ta	.	.
=35	=35	=35	=35	=35	=35	=35	=35	=35
8BB-L	2.b-	ha	2.dd-	ha	2.ff	ha	8D-L	あ
8BB-	.	.	.	.	.	.	8C	い
8BB-	.	.	.	.	.	.	8D-	な
8BB-J	.	.	.	.	.	.	8CJ	き
8BB-L	.	.	.	.	.	.	8D-L	じ
8BB-	.	.	.	.	.	.	8F	だ
8F	8b-L	da	8dd-L	da	8ffL	da	8F	い
8FJ	16b-L	da	16dd-L	da	16ffL	da	8FJ	に
.	16b-JJ	la	16dd-JJ	la	16ffJJ	la	.	.
=36	=36	=36	=36	=36	=36	=36	=36	=36
8E-L	4.g-	ha	4.b-	ha	4.ee-	ha	4G-	ー
8E-	.	.	.	.	.	.	.	.
8E-	.	.	.	.	.	.	4r	.
8E-J	4a-	ah	4b-	ah	4ee-	ah	.	.
8E-L	.	.	.	.	.	.	4r	.
8E-	4g-	ah	4b-	ah	4ee-	ah	.	.
8E-	.	.	.	.	.	.	8r	.
8E-J	8g-	ah	8b-	ah	8ee-	ah	8BB-	う
=37	=37	=37	=37	=37	=37	=37	=37	=37
8AA-L	2.a-	ha	2.cc	ha	2.ee-	ha	8CL	ー
8AA-	.	.	.	.	.	.	8BB-	ま
8AA-	.	.	.	.	.	.	8C	れ
8AA-J	.	.	.	.	.	.	8BB-J	た
8AA-L	.	.	.	.	.	.	8CL	わ
8AA-	.	.	.	.	.	.	8C	け
8E-	8a-L	da	8ccL	da	8ee-L	da	8E-	じゃ
8E-J	16a-L	da	16ccL	da	16ee-L	da	8E-J	な
.	16a-JJ	la	16ccJJ	la	16ee-JJ	la	.	.
=38	=38	=38	=38	=38	=38	=38	=38	=38
8D-L	4.a-	ha	4.dd-	ha	4.ff	ha	4F	ーい
8D-	.	.	.	.	.	.	.	.
8D-	.	.	.	.	.	.	4r	.
8D-J	4a-	ah	4dd-	ah	4ff	ah	.	.
8D-L	.	.	.	.	.	.	2r	.
8D-	4a-	ah	4dd-	ah	4ee-	ah	.	.
8C	.	.	.	.	.	.	.	.
8CJ	8a-	ah	8dd-	ah	8ee-	ah	.	.
=39	=39	=39	=39	=39	=39	=39	=39	=39
8BB-L	2.b-	ha	2.dd-	ha	2.ff	ha	8D-L	き
8BB-	.	.	.	.	.	.	8C	み
8BB-	.	.	.	.	.	.	8D-	と
8BB-J	.	.	.	.	.	.	8CJ	い
8BB-L	.	.	.	.	.	.	4D-	き
8BB-	.	.	.	.	.	.	.	.
8BB-	8b-L	da	8dd-L	da	8ffL	da	8FL	た
8BB-J	16b-L	da	16dd-L	da	16ffL	da	8FJ	い
.	16b-JJ	la	16dd-JJ	la	16ffJJ	la	.	.
=40	=40	=40	=40	=40	=40	=40	=40	=40
8E-L	4.g-	ha	4.b-	ha	4.ee-	ha	4E-	ー
8E-	.	.	.	.	.	.	.	.
8E-	.	.	.	.	.	.	4r	.
8E-J	4a-	ah	4b-	ah	4ee-	ah	.	.
8E-L	.	.	.	.	.	.	4r	.
8E-	4g-	ah	4b-	ah	4ee-	ah	.	.
8E-	.	.	.	.	.	.	8r	.
8E-J	8g-	ah	8b-	ah	8ee-	ah	8FF	き
=41	=41	=41	=41	=41	=41	=41	=41	=41
8AA-L	2a-	ha	2cc	ha	2ee-	ha	8D-L	み
8AA-	.	.	.	.	.	.	8D-	を
8AA-	.	.	.	.	.	.	8C	わ
8AA-J	.	.	.	.	.	.	8CJ	ら
8AAnL	8anL	da	8ccL	da	8ee-L	da	8BB-	わ
8AA	8a	la	8cc	la	8ee-	la	4C	せ
8AA	8a	ta	8cc	ta	8ee-	ta	.	.
8AAJ	8aJ	ta	8ccJ	ta	8ee-J	ta	8C	た
=42	=42	=42	=42	=42	=42	=42	=42	=42
8BB-L	4b-	ha	4dd-	ha	4ff	ha	4BB-	ーい
8BB-	.	.	.	.	.	.	.	.
8BB-	4b-	ah	4dd-	ah	4ff	ah	4r	.
8CJ	.	.	.	.	.	.	.	.
8D-L	8b-L	da	8dd-L	da	8ffL	da	4r	.
8C	8b-	la	8dd-	la	8ff	la	.	.
8BB-	8b-	ta	8dd-	ta	8ff	ta	8r	.
8AA-J	8b-J	ta	8dd-J	ta	8ffJ	ta	8C	あ
=43	=43	=43	=43	=43	=43	=43	=43	=43
8BB-L	2.b-	ha	2.dd-	ha	2.ff	ha	8D-L	ー
8BB-	.	.	.	.	.	.	8C	い
8BB-	.	.	.	.	.	.	8D-	な
8BB-J	.	.	.	.	.	.	8CJ	き
8BB-L	.	.	.	.	.	.	8D-L	じ
8BB-	.	.	.	.	.	.	8F	だ
8F	8b-L	da	8dd-L	da	8ffL	da	8F	い
8FJ	16b-L	da	16dd-L	da	16ffL	da	8FJ	に
.	16b-JJ	la	16dd-JJ	la	16ffJJ	la	.	.
=44	=44	=44	=44	=44	=44	=44	=44	=44
8E-L	4.g-	ha	4.b-	ha	4.ee-	ha	4G-	ー
8E-	.	.	.	.	.	.	.	.
8E-	.	.	.	.	.	.	4r	.
8E-J	4a-	ah	4b-	ah	4ee-	ah	.	.
8E-L	.	.	.	.	.	.	4r	.
8E-	4g-	ah	4b-	ah	4ee-	ah	.	.
8E-	.	.	.	.	.	.	8r	.
8E-J	8g-	ah	8b-	ah	8ee-	ah	8BB-	う
=45	=45	=45	=45	=45	=45	=45	=45	=45
8AA-L	2.a-	ha	2.cc	ha	2.ee-	ha	8CL	ー
8AA-	.	.	.	.	.	.	8BB-	ま
8AA-	.	.	.	.	.	.	8C	れ
8AA-J	.	.	.	.	.	.	8BB-J	た
8AA-L	.	.	.	.	.	.	8CL	わ
8AA-	.	.	.	.	.	.	8C	け
8AA-	8a-L	da	8ccL	da	8ee-L	da	8E-	じゃ
8AA-J	16a-L	da	16ccL	da	16ee-L	da	8E-J	な
.	16a-JJ	la	16ccJJ	la	16ee-JJ	la	.	.
=46	=46	=46	=46	=46	=46	=46	=46	=46
8D-L	4.a-	ha	4.dd-	ha	4.ff	ha	4F	ーい
8D-	.	.	.	.	.	.	.	.
8D-	.	.	.	.	.	.	4r	.
8D-J	4a-	ah	4dd-	ah	4ff	ah	.	.
8D-L	.	.	.	.	.	.	2r	.
8D-	4a-	ah	4dd-	ah	4ee-	ah	.	.
8C	.	.	.	.	.	.	.	.
8CJ	8a-	ah	8dd-	ah	8ee-	ah	.	.
=47	=47	=47	=47	=47	=47	=47	=47	=47
8BB-L	2.b-	ha	2.dd-	ha	2.ff	ha	8D-L	つ
8BB-	.	.	.	.	.	.	8C	よ
8BB-	.	.	.	.	.	.	8D-	く
8BB-J	.	.	.	.	.	.	8CJ	な
8BB-L	.	.	.	.	.	.	4D-	り
8BB-	.	.	.	.	.	.	.	.
8BB-	8b-L	da	8dd-L	da	8ffL	da	8FL	た
8BB-J	16b-L	da	16dd-L	da	16ffL	da	8FJ	い
.	16b-JJ	la	16dd-JJ	la	16ffJJ	la	.	.
=48	=48	=48	=48	=48	=48	=48	=48	=48
8E-L	4.g-	ha	4.b-	ha	4.ee-	ha	4E-	ー
8E-	.	.	.	.	.	.	.	.
8E-	.	.	.	.	.	.	4r	.
8E-J	4a-	ah	4b-	ah	4ee-	ah	.	.
8E-L	.	.	.	.	.	.	4r	.
8E-	4g-	ah	4b-	ah	4ee-	ah	.	.
8E-	.	.	.	.	.	.	8r	.
8E-J	8g-	ah	8b-	ah	8ee-	ah	8EE-	や
=49	=49	=49	=49	=49	=49	=49	=49	=49
8AA-L	4e-	ha	4a-	ha	4ee-	ha	8D-L	さ
8AA-	.	.	.	.	.	.	8D-	し
8AA-	4e-	ah	4a-	ah	4ee-	ah	8C	く
8AA-J	.	.	.	.	.	.	8CJ	な
8AAnL	8e-L	da	8anL	da	8ee-L	da	4BB-	り
8AAJ	8e-	la	8a	la	8ee-	la	.	.
4AA	8e-	ta	8a	ta	8ee-	ta	8CL	た
.	8e-J	ta	8aJ	ta	8ee-J	ta	8CJ	い
=50	=50	=50	=50	=50	=50	=50	=50	=50
8BB-L	4f	ha	4b-	ha	8dd-L	tu	4BB-	ー
8BB-	.	.	.	.	8cc	lu	.	.
8BB-	4f	ah	4b-	ah	8b-	lu	4r	.
8BB-J	.	.	.	.	8dd-J	tu	.	.
8BB-L	8fL	da	8b-L	da	8ccL	lu	2r	.
8BB-	8f	la	8b-	la	8b-	lu	.	.
8BB-	8f	ta	8b-	ta	8dd-	tu	.	.
8BB-J	8fJ	ta	8b-J	ta	8ccJ	lu	.	.
=51	=51	=51	=51	=51	=51	=51	=51	=51
8BB-L	8fL	da	8b-L	da	8b-L	lu	1r	.
8BB-	8f	la	8b-	la	8dd-	tu	.	.
8BB-	8fJ	ta	8b-J	ta	8cc	lu	.	.
8BB-J	4f	ta	4b-	ta	8b-J	lu	.	.
8BB-L	.	.	.	.	8dd-L	tu	.	.
8BB-	8fL	la	8b-L	la	8cc	lu	.	.
8BB-	8f	ta	8b-	ta	8b-	lu	.	.
8BB-J	8fJ	ta	8b-J	ta	8dd-J	tu	.	.
=52	=52	=52	=52	=52	=52	=52	=52	=52
8BB-L	4f	ha	4b-	ha	8ccL	lu	1r	.
8BB-	.	.	.	.	8b-	lu	.	.
8BB-	4f	ah	4b-	ah	8dd-	tu	.	.
8BB-J	.	.	.	.	8ccJ	lu	.	.
8BB-L	8fL	da	8b-L	da	8b-L	lu	.	.
8BB-	8f	la	8b-	la	8dd-	tu	.	.
8BB-	8f	ta	8b-	ta	8cc	lu	.	.
8FFJ	8fJ	ta	8b-J	ta	8b-J	lu	.	.
=53	=53	=53	=53	=53	=53	=53	=53	=53
8BB-L	8fL	da	8b-L	da	8dd-L	tu	2r	.
8BB-	8f	la	8b-	la	8cc	lu	.	.
8BB-	8fJ	ta	8b-J	ta	8b-	lu	.	.
8BB-J	4f	ta	4b-	ta	8dd-J	tu	.	.
8BB-L	.	.	.	.	8ccL	lu	8D-L	さ
8BB-J	8fL	la	8b-L	la	8b-	lu	8C	い
4BB-	8f	ta	8b-	ta	8dd-	tu	8BB-	こ
.	8fJ	ta	8b-J	ta	8ccJ	lu	8AA-J	ろ
=54	=54	=54	=54	=54	=54	=54	=54	=54
8GG-L	4d-	lu	4g-	lu	4b-	lu	4GG-	こ
8GG-	.	.	.	.	.	.	.	.
8GG-	8d-	lu	8g-	lu	8b-	lu	8BB-	ろ
8GG-J	4d-	lu	4g-	lu	4b-	lu	4AA-	が
8AA-L	.	.	.	.	.	.	.	.
8AA-	4c	lu	4e-	lu	4a-	lu	8GG-L	ー
8AA-	.	.	.	.	.	.	8EE-	し
8AA-J	8c	lu	8e-	lu	8a-	lu	8EE-J	て
=55	=55	=55	=55	=55	=55	=55	=55	=55
8BB-L	4d-	lu	4f	lu	4b-	lu	4FF	ー
8BB-	.	.	.	.	.	.	.	.
8BB-	8d-	lu	8f	lu	8b-	lu	8r	.
8BB-J	4d-	lu	4f	lu	4b-	lu	8FF	い
8BB-L	.	.	.	.	.	.	8BB-L	ち
8BB-	4d-	lu	4f	lu	4b-	lu	8AA-	の
8BB-	.	.	.	.	.	.	8GG-	め
8BB-J	8d-	lu	8f	lu	8b-	lu	8FFJ	が
=56	=56	=56	=56	=56	=56	=56	=56	=56
8GG-L	4d-	lu	4g-	lu	4b-	lu	4GG-	で
8GG-	.	.	.	.	.	.	.	.
8GG-	8d-	lu	8g-	lu	8b-	lu	8BB-	た
8GG-J	4d-	lu	4g-	lu	4b-	lu	4AA-	け
8AA-L	.	.	.	.	.	.	.	.
8AA-	4c	lu	4e-	lu	4a-	lu	4GG-	れ
8AA-	.	.	.	.	.	.	.	.
8AA-J	8c	lu	8e-	lu	8a-	lu	8GG-	ど
=57	=57	=57	=57	=57	=57	=57	=57	=57
8BB-L	4d-	lu	4f	lu	4b-	lu	4FF	ー
8BB-	.	.	.	.	.	.	.	.
8BB-	8d-	lu	8f	lu	8b-	lu	4r	.
8BB-J	4d-	lu	4f	lu	4b-	lu	.	.
8BB-L	.	.	.	.	.	.	8D-L	す
8BB-	4d-	lu	4f	lu	4b-	lu	8C	ご
8BB-	.	.	.	.	.	.	8BB-	ろ
8BB-J	8d-	lu	8f	lu	8b-	lu	8AA-J	く
=58	=58	=58	=58	=58	=58	=58	=58	=58
8GG-L	4d-	lu	4g-	lu	4b-	lu	4GG-	の
8GG-	.	.	.	.	.	.	.	.
8GG-	8d-	lu	8g-	lu	8b-	lu	8BB-	も
8GG-J	4d-	lu	4g-	lu	4b-	lu	4AA-	じ
8AA-L	.	.	.	.	.	.	.	.
8AA-	4c	lu	4e-	lu	4a-	lu	8EE-L	ー
8AA-	.	.	.	.	.	.	8C	に
8AA-J	8c	lu	8e-	lu	8a-	lu	8CJ	は
=59	=59	=59	=59	=59	=59	=59	=59	=59
8BB-L	4d-	lu	4f	lu	4b-	lu	4D-	ー
8BB-	.	.	.	.	.	.	.	.
8BB-	8d-	lu	8f	lu	8b-	lu	4r	.
8BB-J	4d-	lu	4f	lu	4b-	lu	.	.
8BB-L	.	.	.	.	.	.	8FL	ふ
8BB-	4d-	lu	4f	lu	4b-	lu	8E-	り
8BB-	.	.	.	.	.	.	8F	だ
8BB-J	8d-	lu	8f	lu	8b-	lu	8FJ	し
=60	=60	=60	=60	=60	=60	=60	=60	=60
8GG-L	4d-	lu	4g-	lu	4b-	lu	8G-L	ー
8GG-	.	.	.	.	.	.	8D-	ー
8GG-	8d-	lu	8g-	lu	8b-	lu	8D-J	に
8GG-J	4d-	lu	4g-	lu	4b-	lu	4D-	も
8AA-L	.	.	.	.	.	.	.	.
8AA-	4c	lu	4e-	lu	4a-	lu	4C	ど
8AA-	.	.	.	.	.	.	.	.
8AA-J	8c	lu	8e-	lu	8a-	lu	8C	る
=61	=61	=61	=61	=61	=61	=61	=61	=61
8BB-L	4d-	lu	4f	lu	4b-	lu	4BB-	ー
8BB-	.	.	.	.	.	.	.	.
8BB-	8d-	lu	8f	lu	8b-	lu	4r	.
8BB-J	4d-	lu	4f	lu	4b-	lu	.	.
8BB-L	.	.	.	.	.	.	8D-L	き
8BB-	4d-	lu	4f	lu	4b-	lu	8C	み
8BB-	.	.	.	.	.	.	8BB-	は
8BB-J	8d-	lu	8f	lu	8b-	lu	8AA-J	き
=62	=62	=62	=62	=62	=62	=62	=62	=62
8GG-L	4d-	lu	4g-	lu	4b-	lu	4GG-	っと
8GG-	.	.	.	.	.	.	.	.
8GG-	8d-	lu	8g-	lu	8b-	lu	8BB-	い
8GG-J	4d-	lu	4g-	lu	4b-	lu	4AA-	う
8AA-L	.	.	.	.	.	.	.	.
8AA-	4c	lu	4e-	lu	4a-	lu	8EE-L	ー
8AA-	.	.	.	.	.	.	8EE-	だ
8AA-J	8c	lu	8e-	lu	8a-	lu	8EE-J	ろ
=63	=63	=63	=63	=63	=63	=63	=63	=63
8BB-L	4d-	lu	4f	lu	4b-	lu	4FF	う
8BB-	.	.	.	.	.	.	.	.
8BB-	8d-	lu	8f	lu	8b-	lu	4r	.
8BB-J	4d-	lu	4f	lu	4b-	lu	.	.
8BB-L	.	.	.	.	.	.	8BB-L	あ
8BB-	4d-	lu	4f	lu	4b-	lu	8AA-	な
8BB-	.	.	.	.	.	.	8GG-	た
8BB-J	8d-	lu	8f	lu	8b-	lu	8FFJ	ら
=64	=64	=64	=64	=64	=64	=64	=64	=64
8GG-L	4d-	lu	4g-	lu	4b-	lu	4GG-	し
8GG-	.	.	.	.	.	.	.	.
8GG-	8d-	lu	8g-	lu	8b-	lu	8BB-	い
8GG-J	4d-	lu	4g-	lu	4b-	lu	4AA-	わ
8AA-L	.	.	.	.	.	.	.	.
8AA-	4c	lu	4e-	lu	4a-	lu	4GG-	ね
8AA-	.	.	.	.	.	.	.	.
8AA-J	8c	lu	8e-	lu	8a-	lu	8GG-	と
=65	=65	=65	=65	=65	=65	=65	=65	=65
8BB-L	4d-	lu	4f	lu	4b-	lu	4FF	ー
8BB-	.	.	.	.	.	.	.	.
8BB-	8d-	lu	8f	lu	8b-	lu	4r	.
8BB-J	4d-	lu	4f	lu	4b-	lu	.	.
8BB-L	.	.	.	.	.	.	8D-L	ひ
8BB-	4d-	lu	4f	lu	4b-	lu	8C	と
8BB-	.	.	.	.	.	.	8BB-	つ
8AA-J	8d-	lu	8f	lu	8b-	lu	8AA-J	す
=66	=66	=66	=66	=66	=66	=66	=66	=66
8GG-L	4d-	lu	4g-	lu	4b-	lu	4GG-	す
8GG-	.	.	.	.	.	.	.	.
8GG-	8d-	lu	8g-	lu	8b-	lu	8BB-	め
8GG-J	4d-	lu	4g-	lu	4b-	lu	4AA-	た
8AA-L	.	.	.	.	.	.	.	.
8AA-	4c	lu	4e-	lu	4a-	lu	8AA-L	の
8AA-	.	.	.	.	.	.	8C	な
8AA-J	8c	lu	8e-	lu	8a-	lu	8CJ	ら
=67	=67	=67	=67	=67	=67	=67	=67	=67
8BB-L	4d-	lu	4f	lu	4b-	lu	4D-	ー
8BB-	.	.	.	.	.	.	.	.
8BB-	8d-	lu	8f	lu	8b-	lu	4r	.
8BB-J	4d-	lu	4f	lu	4b-	lu	.	.
8BB-L	.	.	.	.	.	.	8FL	よ
8BB-	4d-	lu	4f	lu	4b-	lu	8E-	か
8BB-	.	.	.	.	.	.	8F	っ
8BB-J	8d-	lu	8f	lu	8b-	lu	8FJ	た
=68	=68	=68	=68	=68	=68	=68	=68	=68
8G-L	4d-	lu	4g-	lu	4b-	lu	8G-L	ー
8G-	.	.	.	.	.	.	8D-	ー
8G-	8d-	lu	8g-	lu	8b-	lu	8D-J	じゃ
8G-J	4d-	lu	4g-	lu	4b-	lu	4D-	な
8G-L	.	.	.	.	.	.	.	.
8G-	4c	lu	4e-	lu	4a-	lu	4C	い
8G-	.	.	.	.	.	.	.	.
8G-J	8c	lu	8e-	lu	8a-	lu	8C	の
=69	=69	=69	=69	=69	=69	=69	=69	=69
8B-L	4d-	lu	4f	lu	4b-	lu	4BB-	ー
8B-	.	.	.	.	.	.	.	.
8B-	8d-	lu	8f	lu	8b-	lu	2r	.
8B-J	4d-	lu	4f	lu	4b-	lu	.	.
8B-L	.	.	.	.	.	.	.	.
8B-J	4d-	lu	4f	lu	4b-	lu	.	.
4F	.	.	.	.	.	.	8r	.
.	8d-	lu	8f	lu	8b-	lu	8AA-	つ
=70	=70	=70	=70	=70	=70	=70	=70	=70
8AA-L	1a-	ha	1cc	ha	1ee-	ha	8E-L	ー
8AA-	.	.	.	.	.	.	8D-	よ
8AA-	.	.	.	.	.	.	8E-	く
8AA-J	.	.	.	.	.	.	8D-J	な
8AA-L	.	.	.	.	.	.	4E-	り
8AA-	.	.	.	.	.	.	.	.
8AA-	.	.	.	.	.	.	8FL	た
8AA-J	.	.	.	.	.	.	8FJ	い
=71	=71	=71	=71	=71	=71	=71	=71	=71
8AA-L	4r	.	4r	.	1ee-	han	4E-	ー
8AA-	.	.	.	.	.	.	.	.
8AA-	4r	.	2.cc	han	.	.	4r	.
8AA-J	.	.	.	.	.	.	.	.
8AA-L	2a-	han	.	.	.	.	4r	.
8GG-	.	.	.	.	.	.	.	.
8AA-	.	.	.	.	.	.	8r	.
8AAnJ	.	.	.	.	.	.	8C	つ
=72	=72	=72	=72	=72	=72	=72	=72	=72
8BB-L	1b-	ha	1dd-	ha	1ff	ha	8D-L	ー
8BB-	.	.	.	.	.	.	8C	よ
8BB-	.	.	.	.	.	.	8D-	く
8BB-J	.	.	.	.	.	.	8CJ	な
8BB-L	.	.	.	.	.	.	4D-	り
8BB-	.	.	.	.	.	.	.	.
8BB-	.	.	.	.	.	.	8E-L	た
8BB-J	.	.	.	.	.	.	8E-J	い
=73	=73	=73	=73	=73	=73	=73	=73	=73
8BB-L	2r	.	4r	.	1ff	han	4D-	ー
8BB-	.	.	.	.	.	.	.	.
8BB-	.	.	2.dd-	han	.	.	4r	.
8BB-J	.	.	.	.	.	.	.	.
8BB-L	2b-	han	.	.	.	.	2r	.
8BB-	.	.	.	.	.	.	.	.
8AA-	.	.	.	.	.	.	.	.
8AA-J	.	.	.	.	.	.	.	.
=74	=74	=74	=74	=74	=74	=74	=74	=74
8GG-L	1b-	ha	1dd-	ha	1aa-	ha	8E-L	が
8GG-	.	.	.	.	.	.	8D-	ま
8GG-	.	.	.	.	.	.	8E-	ん
8GG-J	.	.	.	.	.	.	8D-J	ば
8GG-L	.	.	.	.	.	.	8E-L	か
8GG-	.	.	.	.	.	.	8D-	ー
8GG-	.	.	.	.	.	.	8D-	り
8D-J	.	.	.	.	.	.	8D-J	じゃ
=75	=75	=75	=75	=75	=75	=75	=75	=75
8G-L	1b-	ah	1dd-	ah	1gg-	ah	4E-	ー
8G-	.	.	.	.	.	.	.	.
8G-	.	.	.	.	.	.	4r	.
8G-J	.	.	.	.	.	.	.	.
8G-L	.	.	.	.	.	.	2r	.
8G-	.	.	.	.	.	.	.	.
8G-	.	.	.	.	.	.	.	.
8G-J	.	.	.	.	.	.	.	.
=76	=76	=76	=76	=76	=76	=76	=76	=76
8AA-L	4a-	ha	2r	.	2r	.	8E-L	ご
8AA-	.	.	.	.	.	.	8D-	ま
8AA-	2a-	ah	.	.	.	.	8E-	か
8AA-J	.	.	.	.	.	.	8D-J	し
8AA-L	.	.	8ccL	da	8ee-L	da	8E-	ば
8AA-	.	.	8cc	la	8ee-	la	4F	か
8AA-	8r	.	8cc	ta	8ee-	ta	.	.
8AA-J	[8a-	ha	8ccJ	ta	8ee-J	ta	8F	り
=77	=77	=77	=77	=77	=77	=77	=77	=77
8AAnL	8a-]	.	8ccL	la	8ee-L	la	4.G-	ー
8AA	4.b-	ah	8cc	ta	8ee-	ta	.	.
8AA	.	.	8ccJ	ta	8ee-J	ta	.	.
8CJ	.	.	4cc	ta	4ee-	ta	8F	ー
8CL	4.b-	ah	.	.	.	.	4F	じゃ
8C	.	.	8ccL	la	8ee-L	la	.	.
8E-	.	.	8cc	ta	8ee-	ta	4r	.
8E-J	8r	.	8ccJ	ta	8ee-J	ta	.	.
=78	=78	=78	=78	=78	=78	=78	=78	=78
8BB-L	2.b-	ha	2.dd-	ha	2.ff	ha	8D-L	あ
8BB-	.	.	.	.	.	.	8C	い
8BB-	.	.	.	.	.	.	8D-	な
8BB-J	.	.	.	.	.	.	8CJ	き
8BB-L	.	.	.	.	.	.	8D-L	じ
8BB-	.	.	.	.	.	.	8F	だ
8F	8b-L	da	8dd-L	da	8ffL	da	8F	い
8FJ	16b-L	da	16dd-L	da	16ffL	da	8FJ	に
.	16b-JJ	la	16dd-JJ	la	16ffJJ	la	.	.
=79	=79	=79	=79	=79	=79	=79	=79	=79
8E-L	4.g-	ha	4.b-	ha	4.ee-	ha	4G-	ー
8E-	.	.	.	.	.	.	.	.
8E-	.	.	.	.	.	.	4r	.
8E-J	4a-	ah	4b-	ah	4ee-	ah	.	.
8E-L	.	.	.	.	.	.	4r	.
8E-	4g-	ah	4b-	ah	4ee-	ah	.	.
8E-	.	.	.	.	.	.	8r	.
8E-J	8g-	ah	8b-	ah	8ee-	ah	8BB-	う
=80	=80	=80	=80	=80	=80	=80	=80	=80
8AA-L	2.a-	ha	2.cc	ha	2.ee-	ha	8CL	ー
8AA-	.	.	.	.	.	.	8BB-	ま
8AA-	.	.	.	.	.	.	8C	れ
8AA-J	.	.	.	.	.	.	8BB-J	た
8AA-L	.	.	.	.	.	.	8CL	わ
8AA-	.	.	.	.	.	.	8C	け
8E-	8a-L	da	8ccL	da	8ee-L	da	8E-	じゃ
8E-J	16a-L	da	16ccL	da	16ee-L	da	8E-J	な
.	16a-JJ	la	16ccJJ	la	16ee-JJ	la	.	.
=81	=81	=81	=81	=81	=81	=81	=81	=81
8D-L	4.a-	ha	4.dd-	ha	4.ff	ha	4F	ーい
8D-	.	.	.	.	.	.	.	.
8D-	.	.	.	.	.	.	4r	.
8D-J	4a-	ah	4dd-	ah	4ff	ah	.	.
8D-L	.	.	.	.	.	.	2r	.
8D-	4a-	ah	4dd-	ah	4ee-	ah	.	.
8C	.	.	.	.	.	.	.	.
8CJ	8a-	ah	8dd-	ah	8ee-	ah	.	.
=82	=82	=82	=82	=82	=82	=82	=82	=82
8BB-L	2.b-	ha	2.dd-	ha	2.ff	ha	8D-L	き
8BB-	.	.	.	.	.	.	8C	み
8BB-	.	.	.	.	.	.	8D-	に
8BB-J	.	.	.	.	.	.	8CJ	あ
8BB-L	.	.	.	.	.	.	4D-	い
8BB-	.	.	.	.	.	.	.	.
8BB-	8b-L	da	8dd-L	da	8ffL	da	8FL	た
8BB-J	16b-L	da	16dd-L	da	16ffL	da	8FJ	い
.	16b-JJ	la	16dd-JJ	la	16ffJJ	la	.	.
=83	=83	=83	=83	=83	=83	=83	=83	=83
8E-L	4.g-	ha	4.b-	ha	4.ee-	ha	4E-	ー
8E-	.	.	.	.	.	.	.	.
8E-	.	.	.	.	.	.	4r	.
8E-J	4a-	ah	4b-	ah	4ee-	ah	.	.
8E-L	.	.	.	.	.	.	2r	.
8E-	4g-	ah	4b-	ah	4ee-	ah	.	.
8E-	.	.	.	.	.	.	.	.
8E-J	8g-	ah	8b-	ah	8ee-	ah	.	.
=84	=84	=84	=84	=84	=84	=84	=84	=84
8AA-L	2a-	ha	2cc	ha	2ee-	ha	8D-L	き
8AA-	.	.	.	.	.	.	8D-	み
8AA-	.	.	.	.	.	.	8C	に
8AA-J	.	.	.	.	.	.	8CJ	あ
8AAnL	8anL	da	8ccL	da	8ee-L	da	4BB-	い
8AA	8a	la	8cc	la	8ee-	la	.	.
8AA	8a	ta	8cc	ta	8ee-	ta	8CL	た
8AAJ	8aJ	ta	8ccJ	ta	8ee-J	ta	8CJ	い
=85	=85	=85	=85	=85	=85	=85	=85	=85
8BB-L	4b-	ha	4dd-	ha	4ff	ha	4BB-	ー
8BB-	.	.	.	.	.	.	.	.
8BB-	4b-	ah	4dd-	ah	4ff	ah	4r	.
8CJ	.	.	.	.	.	.	.	.
8D-L	8b-L	da	8dd-L	da	8ffL	da	4r	.
8C	8b-	la	8dd-	la	8ff	la	.	.
8BB-	8b-	ta	8dd-	ta	8ff	ta	8r	.
8AA-J	8b-J	ta	8dd-J	ta	8ffJ	ta	8C	あ
=86	=86	=86	=86	=86	=86	=86	=86	=86
8BB-L	2.b-	ha	2.dd-	ha	2.ff	ha	8D-L	ー
8BB-	.	.	.	.	.	.	8C	い
8BB-	.	.	.	.	.	.	8D-	な
8BB-J	.	.	.	.	.	.	8CJ	き
8BB-L	.	.	.	.	.	.	8D-L	じ
8BB-	.	.	.	.	.	.	8F	だ
8F	8b-L	da	8dd-L	da	8ffL	da	8F	い
8FJ	16b-L	da	16dd-L	da	16ffL	da	8FJ	に
.	16b-JJ	la	16dd-JJ	la	16ffJJ	la	.	.
=87	=87	=87	=87	=87	=87	=87	=87	=87
8E-L	4.g-	ha	4.b-	ha	4.ee-	ha	4G-	ー
8E-	.	.	.	.	.	.	.	.
8E-	.	.	.	.	.	.	4r	.
8E-J	4a-	ah	4b-	ah	4ee-	ah	.	.
8E-L	.	.	.	.	.	.	4r	.
8E-	4g-	ah	4b-	ah	4ee-	ah	.	.
8E-	.	.	.	.	.	.	8r	.
8E-J	8g-	ah	8b-	ah	8ee-	ah	8BB-	う
=88	=88	=88	=88	=88	=88	=88	=88	=88
8AA-L	2.a-	ha	2.cc	ha	2.ee-	ha	8CL	ー
8AA-	.	.	.	.	.	.	8BB-	ま
8AA-	.	.	.	.	.	.	8C	れ
8AA-J	.	.	.	.	.	.	8BB-J	た
8AA-L	.	.	.	.	.	.	8CL	わ
8AA-	.	.	.	.	.	.	8C	け
8AA-	8a-L	da	8ccL	da	8ee-L	da	8E-	じゃ
8AA-J	16a-L	da	16ccL	da	16ee-L	da	8E-J	な
.	16a-JJ	la	16ccJJ	la	16ee-JJ	la	.	.
=89	=89	=89	=89	=89	=89	=89	=89	=89
8D-L	4.a-	ha	4.dd-	ha	4.ff	ha	4F	ーい
8D-	.	.	.	.	.	.	.	.
8D-	.	.	.	.	.	.	4r	.
8D-J	4a-	ah	4dd-	ah	4ff	ah	.	.
8D-L	.	.	.	.	.	.	2r	.
8D-	4a-	ah	4dd-	ah	4ee-	ah	.	.
8C	.	.	.	.	.	.	.	.
8CJ	8a-	ah	8dd-	ah	8ee-	ah	.	.
=90	=90	=90	=90	=90	=90	=90	=90	=90
8BB-L	2.b-	ha	2.dd-	ha	2.ff	ha	8D-L	つ
8BB-	.	.	.	.	.	.	8C	よ
8BB-	.	.	.	.	.	.	8D-	く
8BB-J	.	.	.	.	.	.	8CJ	な
8BB-L	.	.	.	.	.	.	4D-	り
8BB-	.	.	.	.	.	.	.	.
8BB-	8b-L	da	8dd-L	da	8ffL	da	8FL	た
8BB-J	16b-L	da	16dd-L	da	16ffL	da	8FJ	い
.	16b-JJ	la	16dd-JJ	la	16ffJJ	la	.	.
=91	=91	=91	=91	=91	=91	=91	=91	=91
8E-L	4.g-	ha	4.b-	ha	4.ee-	ha	4E-	ー
8E-	.	.	.	.	.	.	.	.
8E-	.	.	.	.	.	.	4r	.
8E-J	4a-	ah	4b-	ah	4ee-	ah	.	.
8E-L	.	.	.	.	.	.	4r	.
8E-	4g-	ah	4b-	ah	4ee-	ah	.	.
8E-	.	.	.	.	.	.	8r	.
8E-J	8g-	ah	8b-	ah	8ee-	ah	8EE-	や
=92	=92	=92	=92	=92	=92	=92	=92	=92
8AA-L	4a-	ha	4cc	ha	4ee-	ha	8D-L	さ
8AA-	.	.	.	.	.	.	8D-	し
8AA-	4a-	ah	4cc	ah	4ee-	ah	8C	く
8AA-J	.	.	.	.	.	.	8CJ	な
8CL	8anL	da	8ccL	da	8ee-L	da	8BB-	り
8C	8a	la	8cc	la	8ee-	la	[4.D-	たい
8C	8a	ta	8cc	ta	8ee-	ta	.	.
8CJ	8aJ	ta	8ccJ	ta	8ee-J	ta	.	.
=93	=93	=93	=93	=93	=93	=93	=93	=93
8D-L	4.d-	ha	4.f	ha	4.a-	ha	1D-]	ー
8D-	.	.	.	.	.	.	.	.
8D-	.	.	.	.	.	.	.	.
8D-J	4.d-	ah	4.f	ah	4.a-	ah	.	.
8D-L	.	.	.	.	.	.	.	.
8D-	.	.	.	.	.	.	.	.
8D-	4d-	ah	4f	ah	4a-	ah	.	.
8D-J	.	.	.	.	.	.	.	.
=94	=94	=94	=94	=94	=94	=94	=94	=94
8FL	4.d-	ha	4.f	ha	4.a-	ha	1r	.
8F	.	.	.	.	.	.	.	.
8F	.	.	.	.	.	.	.	.
8FJ	4.d-	ah	4.f	ah	4.a-	ah	.	.
8FL	.	.	.	.	.	.	.	.
8F	.	.	.	.	.	.	.	.
8F	4d-	ah	4f	ah	4a-	ah	.	.
8FJ	.	.	.	.	.	.	.	.
=95	=95	=95	=95	=95	=95	=95	=95	=95
8G-L	4.d-	ha	4.g-	ha	4.an	ha	1r	.
8G-	.	.	.	.	.	.	.	.
8G-	.	.	.	.	.	.	.	.
8G-J	4.d-	ah	4.g-	ah	4.a	ah	.	.
8G-L	.	.	.	.	.	.	.	.
8G-	.	.	.	.	.	.	.	.
8G-	4d-	ah	4g-	ah	4a	ah	.	.
8G-J	.	.	.	.	.	.	.	.
=96	=96	=96	=96	=96	=96	=96	=96	=96
8G-L	4.d-	ha	4.g-	ha	4.an	ha	1r	.
8G-	.	.	.	.	.	.	.	.
8G-	.	.	.	.	.	.	.	.
8G-J	4.d-	ah	4.g-	ah	4.a	ah	.	.
8G-L	.	.	.	.	.	.	.	.
8G-	.	.	.	.	.	.	.	.
8G-	4d-	ah	4g-	ah	4a	ah	.	.
8G-J	.	.	.	.	.	.	.	.
=97	=97	=97	=97	=97	=97	=97	=97	=97
8D-L	4.d-	ha	4.f	ha	4.a-	ha	1r	.
8D-	.	.	.	.	.	.	.	.
8D-	.	.	.	.	.	.	.	.
8D-J	4.d-	ah	4.f	ah	4.a-	ah	.	.
8D-L	.	.	.	.	.	.	.	.
8D-	.	.	.	.	.	.	.	.
8D-	4d-	ah	4f	ah	4a-	ah	.	.
8D-J	.	.	.	.	.	.	.	.
=98	=98	=98	=98	=98	=98	=98	=98	=98
8FL	4.d-	ha	4.f	ha	4.a-	ha	1r	.
8F	.	.	.	.	.	.	.	.
8F	.	.	.	.	.	.	.	.
8FJ	4.d-	ah	4.f	ah	4.a-	ah	.	.
8FL	.	.	.	.	.	.	.	.
8F	.	.	.	.	.	.	.	.
8F	4d-	ah	4f	ah	4a-	ah	.	.
8FJ	.	.	.	.	.	.	.	.
=99	=99	=99	=99	=99	=99	=99	=99	=99
8G-L	4.d-	ha	4.g-	ha	4.an	ha	1r	.
8G-	.	.	.	.	.	.	.	.
8G-	.	.	.	.	.	.	.	.
8G-J	4.d-	ah	4.g-	ah	4.a	ah	.	.
8G-L	.	.	.	.	.	.	.	.
8G-	.	.	.	.	.	.	.	.
8G-	4d-	ah	4g-	ah	4a	ah	.	.
8G-J	.	.	.	.	.	.	.	.
=100	=100	=100	=100	=100	=100	=100	=100	=100
8G-L	4.d-	ha	4.g-	ha	4.an	ha	2r	.
8G-	.	.	.	.	.	.	.	.
8G-	.	.	.	.	.	.	.	.
8G-J	4.d-	ah	4.g-	ah	4.a	ah	.	.
8G-L	.	.	.	.	.	.	4r	.
8G-	.	.	.	.	.	.	.	.
8G-	4d-	ah	4g-	ah	4a	ah	8r	.
8G-J	.	.	.	.	.	.	8BB-	ち
=101	=101	=101	=101	=101	=101	=101	=101	=101
[1D-	[1d-	ah	[1f	ah	[1a-	ah	8D-L	きゅ
.	.	.	.	.	.	.	8BB-	う
.	.	.	.	.	.	.	8D-	ぎ
.	.	.	.	.	.	.	8BB-J	を
.	.	.	.	.	.	.	8D-L	ま
.	.	.	.	.	.	.	8D-	わ
.	.	.	.	.	.	.	8D-	し
.	.	.	.	.	.	.	[8D-J	て
=102	=102	=102	=102	=102	=102	=102	=102	=102
2.D-_	1d-]	.	1f]	.	1a-]	.	4D-]	ー
.	.	.	.	.	.	.	4r	.
.	.	.	.	.	.	.	2r	.
8D-L]	.	.	.	.	.	.	.	.
8AA-J	.	.	.	.	.	.	.	.
=103	=103	=103	=103	=103	=103	=103	=103	=103
[1D-	1r	.	1r	.	1r	.	8D-L	せ
.	.	.	.	.	.	.	8BB-	か
.	.	.	.	.	.	.	8D-	い
.	.	.	.	.	.	.	8BB-J	ひゃ
.	.	.	.	.	.	.	8D-	く
.	.	.	.	.	.	.	4D-	しゅ
.	.	.	.	.	.	.	[8D-	う
=104	=104	=104	=104	=104	=104	=104	=104	=104
1D-]	1r	.	1r	.	1r	.	4D-]	ー
.	.	.	.	.	.	.	4r	.
.	.	.	.	.	.	.	2r	.
=105	=105	=105	=105	=105	=105	=105	=105	=105
1AA-	1r	.	1r	.	1r	.	8D-L	ぼ
.	.	.	.	.	.	.	8BB-	く
.	.	.	.	.	.	.	8D-	ら
.	.	.	.	.	.	.	8BB-J	で
.	.	.	.	.	.	.	8D-	ま
.	.	.	.	.	.	.	4D-	わ
.	.	.	.	.	.	.	[8D-	そ
=106	=106	=106	=106	=106	=106	=106	=106	=106
1AAn	1r	.	1r	.	1r	.	4D-]	う
.	.	.	.	.	.	.	4r	.
.	.	.	.	.	.	.	2r	.
=107	=107	=107	=107	=107	=107	=107	=107	=107
1BB-	1r	.	1r	.	1r	.	4F	まっ
.	.	.	.	.	.	.	8E-L	て
.	.	.	.	.	.	.	8E-J	て
.	.	.	.	.	.	.	8D-	お
.	.	.	.	.	.	.	4E-	く
.	.	.	.	.	.	.	8E-	れ
=108	=108	=108	=108	=108	=108	=108	=108	=108
8r	8r	.	8r	.	8r	.	2.F	ー
8D-L	8BnL	da	8fL	da	8a-L	da	.	.
8D-	8B	da	8f	da	8a-	da	.	.
8D-J	8BJ	da	8fJ	da	8a-J	da	.	.
8D-L	8BL	da	8fL	da	8a-L	da	.	.
8D-	8B	da	8f	da	8a-	da	.	.
8D-	8B	da	8f	da	8a-	da	8A-L	ー
8D-J	8BJ	da	8fJ	da	8a-J	da	[8G-J	ー
=109	=109	=109	=109	=109	=109	=109	=109	=109
8GG-L	2B-	ah	2d-	ah	2g-	ah	2G-]	ー
8GG-	.	.	.	.	.	.	.	.
8GG-	.	.	.	.	.	.	.	.
8GG-J	.	.	.	.	.	.	.	.
8GG-L	8B-L	da	8d-L	da	8g-L	da	2r	.
8GG-	8B-	la	8d-	la	8g-	la	.	.
8GG-	8B-	ta	8d-	ta	8g-	ta	.	.
8GG-J	8B-J	ta	8d-J	ta	8g-J	ta	.	.
=110	=110	=110	=110	=110	=110	=110	=110	=110
8GG-L	8B-L	la	8d-L	la	8g-L	la	2r	.
8GG-	8B-	ta	8d-	ta	8g-	ta	.	.
8GG-J	8B-J	ta	8d-J	ta	8g-J	ta	.	.
4GG-	4B-	ta	4d-	ta	4g-	ta	.	.
.	.	.	.	.	.	.	4r	.
8GG-L	8B-L	la	8d-L	la	8g-L	la	.	.
8GG-	8B-	ta	8d-	ta	8g-	ta	4F	ー
8GG-J	8B-J	ta	8d-J	ta	8g-J	ta	.	.
=111	=111	=111	=111	=111	=111	=111	=111	=111
8AA-L	8cL	la	8e-L	la	8a-L	la	4E-	ー
8AA-	8c	ta	8e-	ta	8a-	ta	.	.
8AA-	8cJ	ta	8e-J	ta	8a-J	ta	4r	.
8AA-J	4c	ta	4e-	ta	4a-	ta	.	.
8AA-L	.	.	.	.	.	.	2r	.
8AA-	8cL	la	8e-L	la	8a-L	la	.	.
8AA-	8c	ta	8e-	ta	8a-	ta	.	.
8AA-J	8cJ	ta	8e-J	ta	8a-J	ta	.	.
=112	=112	=112	=112	=112	=112	=112	=112	=112
8AAnL	8cL	la	8g-L	la	8anL	la	1r	.
8AA	8c	ta	8g-	ta	8a	ta	.	.
8C	8c	ta	8g-	ta	8a	ta	.	.
8CJ	8cJ	ta	8g-J	ta	8aJ	ta	.	.
8E-	8c	tan	8f	tan	8a	tan	.	.
8r	8r	.	8r	.	8r	.	.	.
4r	4r	.	4r	.	4r	.	.	.
=113	=113	=113	=113	=113	=113	=113	=113	=113
8BB-L	2.b-	ha	2.dd-	ha	2.ff	ha	8D-L	あ
8BB-	.	.	.	.	.	.	8C	い
8BB-	.	.	.	.	.	.	8D-	な
8BB-J	.	.	.	.	.	.	8CJ	き
8BB-L	.	.	.	.	.	.	8D-L	じ
8BB-	.	.	.	.	.	.	8F	だ
8F	8b-L	da	8dd-L	da	8ffL	da	8F	い
8FJ	16b-L	da	16dd-L	da	16ffL	da	8FJ	に
.	16b-JJ	la	16dd-JJ	la	16ffJJ	la	.	.
=114	=114	=114	=114	=114	=114	=114	=114	=114
8E-L	4.g-	ha	4.b-	ha	4.ee-	ha	4G-	ー
8E-	.	.	.	.	.	.	.	.
8E-	.	.	.	.	.	.	4r	.
8E-J	4a-	ah	4b-	ah	4ee-	ah	.	.
8E-L	.	.	.	.	.	.	4r	.
8E-	4g-	ah	4b-	ah	4ee-	ah	.	.
8E-	.	.	.	.	.	.	8r	.
8E-J	8g-	ah	8b-	ah	8ee-	ah	8BB-	う
=115	=115	=115	=115	=115	=115	=115	=115	=115
8AA-L	2.a-	ha	2.cc	ha	2.ee-	ha	8CL	ー
8AA-	.	.	.	.	.	.	8BB-	ま
8AA-	.	.	.	.	.	.	8C	れ
8AA-J	.	.	.	.	.	.	8BB-J	た
8AA-L	.	.	.	.	.	.	8CL	わ
8AA-	.	.	.	.	.	.	8C	け
8E-	8a-L	da	8ccL	da	8ee-L	da	8E-	じゃ
8E-J	16a-L	da	16ccL	da	16ee-L	da	8E-J	な
.	16a-JJ	la	16ccJJ	la	16ee-JJ	la	.	.
=116	=116	=116	=116	=116	=116	=116	=116	=116
8D-L	4.a-	ha	4.dd-	ha	4.ff	ha	4F	ーい
8D-	.	.	.	.	.	.	.	.
8D-	.	.	.	.	.	.	4r	.
8D-J	4a-	ah	4dd-	ah	4ff	ah	.	.
8D-L	.	.	.	.	.	.	2r	.
8D-	4a-	ah	4dd-	ah	4ee-	ah	.	.
8C	.	.	.	.	.	.	.	.
8CJ	8a-	ah	8dd-	ah	8ee-	ah	.	.
=117	=117	=117	=117	=117	=117	=117	=117	=117
8BB-L	2.b-	ha	2.dd-	ha	2.ff	ha	8D-L	き
8BB-	.	.	.	.	.	.	8C	み
8BB-	.	.	.	.	.	.	8D-	に
8BB-J	.	.	.	.	.	.	8CJ	あ
8BB-L	.	.	.	.	.	.	4D-	い
8BB-	.	.	.	.	.	.	.	.
8BB-	8b-L	da	8dd-L	da	8ffL	da	8FL	た
8BB-J	16b-L	da	16dd-L	da	16ffL	da	8FJ	い
.	16b-JJ	la	16dd-JJ	la	16ffJJ	la	.	.
=118	=118	=118	=118	=118	=118	=118	=118	=118
8E-L	4.g-	ha	4.b-	ha	4.ee-	ha	4E-	ー
8E-	.	.	.	.	.	.	.	.
8E-	.	.	.	.	.	.	4r	.
8E-J	4a-	ah	4b-	ah	4ee-	ah	.	.
8E-L	.	.	.	.	.	.	4r	.
8E-	4g-	ah	4b-	ah	4ee-	ah	.	.
8E-	.	.	.	.	.	.	8r	.
8E-J	8g-	ah	8b-	ah	8ee-	ah	8EE-	き
=119	=119	=119	=119	=119	=119	=119	=119	=119
8AA-L	2a-	ha	2cc	ha	2ee-	ha	8D-L	み
8AA-	.	.	.	.	.	.	8D-	を
8AA-	.	.	.	.	.	.	8C	わ
8AA-J	.	.	.	.	.	.	8CJ	ら
8AAnL	8anL	da	8ccL	da	8ee-L	da	8BB-	わ
8AA	8a	la	8cc	la	8ee-	la	4C	せ
8AA	8a	ta	8cc	ta	8ee-	ta	.	.
8AAJ	8aJ	ta	8ccJ	ta	8ee-J	ta	8C	た
=120	=120	=120	=120	=120	=120	=120	=120	=120
8BB-L	4b-	ha	4dd-	ha	4ff	ha	4BB-	ーい
8BB-	.	.	.	.	.	.	.	.
8BB-	4b-	ah	4dd-	ah	4ff	ah	4r	.
8CJ	.	.	.	.	.	.	.	.
8D-L	8b-L	da	8dd-L	da	8ffL	da	4r	.
8C	8b-	la	8dd-	la	8ff	la	.	.
8BB-	8b-	ta	8dd-	ta	8ff	ta	8r	.
8AA-J	8b-J	ta	8dd-J	ta	8ffJ	ta	8C	あ
=121	=121	=121	=121	=121	=121	=121	=121	=121
8BB-L	2.b-	ha	2.dd-	ha	2.ff	ha	8D-L	ー
8BB-	.	.	.	.	.	.	8C	い
8BB-	.	.	.	.	.	.	8D-	な
8BB-J	.	.	.	.	.	.	8CJ	き
8BB-L	.	.	.	.	.	.	8D-L	じ
8BB-	.	.	.	.	.	.	8D-	だ
8F	8b-L	da	8dd-L	da	8ffL	da	8F	い
8FJ	16b-L	da	16dd-L	da	16ffL	da	8FJ	に
.	16b-JJ	la	16dd-JJ	la	16ffJJ	la	.	.
=122	=122	=122	=122	=122	=122	=122	=122	=122
8E-L	4.g-	ha	4.b-	ha	4.ee-	ha	4G-	ー
8E-	.	.	.	.	.	.	.	.
8E-	.	.	.	.	.	.	4r	.
8E-J	4a-	ah	4b-	ah	4ee-	ah	.	.
8E-L	.	.	.	.	.	.	4r	.
8E-	4g-	ah	4b-	ah	4ee-	ah	.	.
8E-	.	.	.	.	.	.	8r	.
8E-J	8g-	ah	8b-	ah	8ee-	ah	8BB-	う
=123	=123	=123	=123	=123	=123	=123	=123	=123
8AA-L	2.a-	ha	2.cc	ha	2.ee-	ha	8CL	ー
8AA-	.	.	.	.	.	.	8BB-	ま
8AA-	.	.	.	.	.	.	8C	れ
8AA-J	.	.	.	.	.	.	8BB-J	た
8AA-L	.	.	.	.	.	.	8CL	わ
8AA-	.	.	.	.	.	.	8C	け
8E-	8a-L	da	8ccL	da	8ee-L	da	8E-	じゃ
8E-J	16a-L	da	16ccL	da	16ee-L	da	8E-J	な
.	16a-JJ	la	16ccJJ	la	16ee-JJ	la	.	.
=124	=124	=124	=124	=124	=124	=124	=124	=124
8D-L	4.a-	ha	4.dd-	ha	4.ff	ha	4F	ーい
8D-	.	.	.	.	.	.	.	.
8D-	.	.	.	.	.	.	4r	.
8D-J	4a-	ah	4dd-	ah	4ff	ah	.	.
8D-L	.	.	.	.	.	.	2r	.
8D-	4a-	ah	4dd-	ah	4ee-	ah	.	.
8C	.	.	.	.	.	.	.	.
8CJ	8a-	ah	8dd-	ah	8ee-	ah	.	.
=125	=125	=125	=125	=125	=125	=125	=125	=125
8BB-L	2.b-	ha	2.dd-	ha	2.ff	ha	8D-L	つ
8BB-	.	.	.	.	.	.	8C	よ
8BB-	.	.	.	.	.	.	8D-	く
8BB-J	.	.	.	.	.	.	8CJ	な
8BB-L	.	.	.	.	.	.	4D-	り
8BB-	.	.	.	.	.	.	.	.
8BB-	8b-L	da	8dd-L	da	8ffL	da	8FL	た
8BB-J	16b-L	da	16dd-L	da	16ffL	da	8FJ	い
.	16b-JJ	la	16dd-JJ	la	16ffJJ	la	.	.
=126	=126	=126	=126	=126	=126	=126	=126	=126
8E-L	4.g-	ha	4.b-	ha	4.ee-	ha	4E-	ー
8E-	.	.	.	.	.	.	.	.
8E-	.	.	.	.	.	.	4r	.
8E-J	4a-	ah	4b-	ah	4ee-	ah	.	.
8E-L	.	.	.	.	.	.	4r	.
8E-	4g-	ah	4b-	ah	4ee-	ah	.	.
8E-	.	.	.	.	.	.	8r	.
8E-J	8g-	ah	8b-	ah	8ee-	ah	8EE-	や
=127	=127	=127	=127	=127	=127	=127	=127	=127
8AA-L	2a-	ha	2cc	ha	2ee-	ha	8D-L	さ
8AA-	.	.	.	.	.	.	8D-	し
8AA-	.	.	.	.	.	.	8C	く
8AA-J	.	.	.	.	.	.	8CJ	な
8AAnL	8anL	da	8ccL	da	8ee-L	da	4BB-	り
8AA	8a	la	8cc	la	8ee-	la	.	.
8AA	8a	ta	8cc	ta	8ee-	ta	8CL	た
8AAJ	8aJ	ta	8ccJ	ta	8ee-J	ta	8CJ	い
=128	=128	=128	=128	=128	=128	=128	=128	=128
8BB-L	4b-	ha	4dd-	ha	4ff	ha	4BB-	ー
8BB-	.	.	.	.	.	.	.	.
8BB-	4b-	ah	4dd-	ah	4ff	ah	4r	.
8CJ	.	.	.	.	.	.	.	.
8D-L	8b-L	da	8dd-L	da	8ffL	da	4r	.
8C	8b-	la	8dd-	la	8ff	la	.	.
8BB-	8b-	ta	8dd-	ta	8ff	ta	8r	.
8AA-J	8b-J	ta	8dd-J	ta	8ffJ	ta	8C	あ
=129	=129	=129	=129	=129	=129	=129	=129	=129
8BB-L	2.b-	ha	2.dd-	ha	2.ff	ha	8D-L	ー
8BB-	.	.	.	.	.	.	8C	い
8BB-	.	.	.	.	.	.	8D-	な
8BB-J	.	.	.	.	.	.	8CJ	き
8BB-L	.	.	.	.	.	.	8D-L	じ
8BB-	.	.	.	.	.	.	8D-	だ
8F	8b-L	da	8dd-L	da	8ffL	da	8F	い
8FJ	16b-L	da	16dd-L	da	16ffL	da	8FJ	に
.	16b-JJ	la	16dd-JJ	la	16ffJJ	la	.	.
=130	=130	=130	=130	=130	=130	=130	=130	=130
8E-L	4.g-	ha	4.b-	ha	4.ee-	ha	4G-	ー
8E-	.	.	.	.	.	.	.	.
8E-	.	.	.	.	.	.	4r	.
8E-J	4a-	ah	4b-	ah	4ee-	ah	.	.
8E-L	.	.	.	.	.	.	4r	.
8E-	4g-	ah	4b-	ah	4ee-	ah	.	.
8E-	.	.	.	.	.	.	8r	.
8E-J	8g-	ah	8b-	ah	8ee-	ah	8BB-	う
=131	=131	=131	=131	=131	=131	=131	=131	=131
8AA-L	2.a-	ha	2.cc	ha	2.ee-	ha	8CL	ー
8AA-	.	.	.	.	.	.	8BB-	ま
8AA-	.	.	.	.	.	.	8C	れ
8AA-J	.	.	.	.	.	.	8BB-J	た
8AA-L	.	.	.	.	.	.	8CL	わ
8AA-	.	.	.	.	.	.	8C	け
8E-	8a-L	da	8ccL	da	8ee-L	da	8E-	じゃ
8E-J	16a-L	da	16ccL	da	16ee-L	da	8E-J	な
.	16a-JJ	la	16ccJJ	la	16ee-JJ	la	.	.
=132	=132	=132	=132	=132	=132	=132	=132	=132
8D-L	4.a-	ha	4.dd-	ha	4.ff	ha	4F	ーい
8D-	.	.	.	.	.	.	.	.
8D-	.	.	.	.	.	.	4r	.
8D-J	4a-	ah	4dd-	ah	4ff	ah	.	.
8D-L	.	.	.	.	.	.	2r	.
8D-	4a-	ah	4dd-	ah	4ee-	ah	.	.
8C	.	.	.	.	.	.	.	.
8CJ	8a-	ah	8dd-	ah	8ee-	ah	.	.
=133	=133	=133	=133	=133	=133	=133	=133	=133
8BB-L	2.b-	ha	2.dd-	ha	2.ff	ha	8D-L	て
8BB-	.	.	.	.	.	.	8C	を
8BB-	.	.	.	.	.	.	8D-	つ
8BB-J	.	.	.	.	.	.	8CJ	な
8BB-L	.	.	.	.	.	.	4D-	ぎ
8BB-	.	.	.	.	.	.	.	.
8BB-	8b-L	da	8dd-L	da	8ffL	da	8FL	た
8BB-J	16b-L	da	16dd-L	da	16ffL	da	8FJ	い
.	16b-JJ	la	16dd-JJ	la	16ffJJ	la	.	.
=134	=134	=134	=134	=134	=134	=134	=134	=134
8E-L	4.g-	ha	4.b-	ha	4.ee-	ha	4E-	ー
8E-	.	.	.	.	.	.	.	.
8E-	.	.	.	.	.	.	4r	.
8E-J	4a-	ah	4b-	ah	4ee-	ah	.	.
8E-L	.	.	.	.	.	.	4r	.
8E-	4g-	ah	4b-	ah	4ee-	ah	.	.
8E-	.	.	.	.	.	.	8r	.
8E-J	8g-	ah	8b-	ah	8ee-	ah	8EE-	や
=135	=135	=135	=135	=135	=135	=135	=135	=135
8AA-L	4a-	ha	4cc	ha	4ee-	ha	8D-L	さ
8AA-	.	.	.	.	.	.	8D-	し
8AA-	4a-	ah	4cc	ah	4ee-	ah	8C	く
8AA-J	.	.	.	.	.	.	8CJ	な
8CL	8anL	da	8ccL	da	8ee-L	da	8BB-	り
8C	8a	la	8cc	la	8ee-	la	[4.D-	たい
8C	8a	ta	8cc	ta	8ee-	ta	.	.
8CJ	8aJ	ta	8ccJ	ta	8ee-J	ta	.	.
=136	=136	=136	=136	=136	=136	=136	=136	=136
8D-L	4.d-	ha	4.f	ha	4.a-	ha	1D-]	ー
8D-	.	.	.	.	.	.	.	.
8D-	.	.	.	.	.	.	.	.
8D-J	4.d-	ah	4.f	ah	4.a-	ah	.	.
8D-L	.	.	.	.	.	.	.	.
8D-	.	.	.	.	.	.	.	.
8D-	4d-	ah	4f	ah	4a-	ah	.	.
8D-J	.	.	.	.	.	.	.	.
=137	=137	=137	=137	=137	=137	=137	=137	=137
8FL	4.d-	ha	4.f	ha	4.a-	ha	1r	.
8F	.	.	.	.	.	.	.	.
8F	.	.	.	.	.	.	.	.
8FJ	4.d-	ah	4.f	ah	4.a-	ah	.	.
8FL	.	.	.	.	.	.	.	.
8F	.	.	.	.	.	.	.	.
8F	4d-	ah	4f	ah	4a-	ah	.	.
8FJ	.	.	.	.	.	.	.	.
=138	=138	=138	=138	=138	=138	=138	=138	=138
8G-L	4.d-	ha	4.g-	ha	4.an	ha	1r	.
8G-	.	.	.	.	.	.	.	.
8G-	.	.	.	.	.	.	.	.
8G-J	4.d-	ah	4.g-	ah	4.a	ah	.	.
8G-L	.	.	.	.	.	.	.	.
8G-	.	.	.	.	.	.	.	.
8G-	4d-	ah	4g-	ah	4a	ah	.	.
8G-J	.	.	.	.	.	.	.	.
=139	=139	=139	=139	=139	=139	=139	=139	=139
8G-L	4.d-	ha	4.g-	ha	4.an	ha	1r	.
8G-	.	.	.	.	.	.	.	.
8G-	.	.	.	.	.	.	.	.
8G-J	4.d-	ah	4.g-	ah	4.a	ah	.	.
8G-L	.	.	.	.	.	.	.	.
8G-	.	.	.	.	.	.	.	.
8G-	4d-	ah	4g-	ah	4a	ah	.	.
8G-J	.	.	.	.	.	.	.	.
=140	=140	=140	=140	=140	=140	=140	=140	=140
8D-L	4.d-	ha	4.f	ha	4.a-	ha	1r	.
8D-	.	.	.	.	.	.	.	.
8D-	.	.	.	.	.	.	.	.
8D-J	4.d-	ah	4.f	ah	4.a-	ah	.	.
8D-L	.	.	.	.	.	.	.	.
8D-	.	.	.	.	.	.	.	.
8D-	4d-	ah	4f	ah	4a-	ah	.	.
8D-J	.	.	.	.	.	.	.	.
=141	=141	=141	=141	=141	=141	=141	=141	=141
8FL	4.d-	ha	4.f	ha	4.a-	ha	1r	.
8F	.	.	.	.	.	.	.	.
8F	.	.	.	.	.	.	.	.
8FJ	4.d-	ah	4.f	ah	4.a-	ah	.	.
8FL	.	.	.	.	.	.	.	.
8F	.	.	.	.	.	.	.	.
8F	4d-	ah	4f	ah	4a-	ah	.	.
8FJ	.	.	.	.	.	.	.	.
=142	=142	=142	=142	=142	=142	=142	=142	=142
8G-L	4.d-	ha	4.g-	ha	4.an	ha	1r	.
8G-	.	.	.	.	.	.	.	.
8G-	.	.	.	.	.	.	.	.
8G-J	4.d-	ah	4.g-	ah	4.a	ah	.	.
8G-L	.	.	.	.	.	.	.	.
8G-	.	.	.	.	.	.	.	.
8G-	4d-	ah	4g-	ah	4a	ah	.	.
8G-J	.	.	.	.	.	.	.	.
=143	=143	=143	=143	=143	=143	=143	=143	=143
8G-L	4.d-	ha	4.g-	ha	4.an	ha	1r	.
8G-	.	.	.	.	.	.	.	.
8G-	.	.	.	.	.	.	.	.
8G-J	4.d-	ah	4.g-	ah	4.a	ah	.	.
8G-L	.	.	.	.	.	.	.	.
8G-	.	.	.	.	.	.	.	.
8G-	4d-	ah	4g-	ah	4a	ah	.	.
8G-J	.	.	.	.	.	.	.	.
=144	=144	=144	=144	=144	=144	=144	=144	=144
[1D-	[1d-	hum	[1f	hum	[1a-	hum	1r	.
=145	=145	=145	=145	=145	=145	=145	=145	=145
1D-]	1d-]	.	1f]	.	1a-]	.	1r	.
==	==	==	==	==	==	==	==	==
*-	*-	*-	*-	*-	*-	*-	*-	*-
